build/assets/images/svg/icons/menu/b-user.svg

<svg width="20" height="20" viewBox="0 0 20 20" fill="none" xmlns="http://www.w3.org/2000/svg">
<path fill-rule="evenodd" clip-rule="evenodd" d="M10.0007 19.1666C4.93804 19.1666 0.833984 15.0626 0.833984 9.99998C0.833984 4.93737 4.93804 0.833313 10.0007 0.833313C15.0633 0.833313 19.1673 4.93737 19.1673 9.99998C19.1673 15.0626 15.0633 19.1666 10.0007 19.1666ZM16.1669 14.2705C17.0078 13.0586 17.5007 11.5868 17.5007 9.99998C17.5007 5.85784 14.1428 2.49998 10.0007 2.49998C5.85851 2.49998 2.50065 5.85784 2.50065 9.99998C2.50065 11.5868 2.99347 13.0586 3.83441 14.2705C4.77228 13.0317 6.97615 12.5 10.0007 12.5C13.0251 12.5 15.229 13.0317 16.1669 14.2705ZM14.9712 15.6165C14.7273 14.7394 12.9751 14.1666 10.0007 14.1666C7.02617 14.1666 5.27399 14.7394 5.03008 15.6165C6.3534 16.7885 8.09393 17.5 10.0007 17.5C11.9074 17.5 13.6479 16.7885 14.9712 15.6165ZM10.0007 4.99998C7.98323 4.99998 6.66732 6.46311 6.66732 8.33331C6.66732 11.1895 8.1347 12.5 10.0007 12.5C11.8491 12.5 13.334 11.233 13.334 8.49998C13.334 6.60129 12.0125 4.99998 10.0007 4.99998ZM8.33398 8.33331C8.33398 10.2244 9.01583 10.8333 10.0007 10.8333C10.9821 10.8333 11.6673 10.2486 11.6673 8.49998C11.6673 7.45866 11.0137 6.66665 10.0007 6.66665C8.94543 6.66665 8.33398 7.3465 8.33398 8.33331Z" fill="#203686"/>
</svg>

<svg width="20" height="20" fill="none" xmlns="http://www.w3.org/2000/svg"><path fill-rule="evenodd" clip-rule="evenodd" d="M10 19.167A9.167 9.167 0 1110 .833a9.167 9.167 0 010 18.334zm6.167-4.897a7.5 7.5 0 10-12.332 0c.936-1.237 3.14-1.77 6.165-1.77 3.024 0 5.228.532 6.166 1.77zm-1.196 1.347c-.244-.878-1.996-1.45-4.97-1.45-2.975 0-4.727.572-4.97 1.45A7.472 7.472 0 0010 17.5a7.472 7.472 0 004.97-1.883zM10.001 5C7.983 5 6.667 6.463 6.667 8.333c0 2.857 1.468 4.167 3.334 4.167 1.848 0 3.333-1.267 3.333-4 0-1.899-1.322-3.5-3.333-3.5zM8.334 8.333c0 1.891.682 2.5 1.667 2.5.981 0 1.666-.584 1.666-2.333 0-1.041-.653-1.833-1.666-1.833-1.056 0-1.667.68-1.667 1.666z" fill="#203686"/></svg>
